img/sprites/telegram.svg

<svg width="60" height="60" viewBox="0 0 60 60" fill="none" xmlns="http://www.w3.org/2000/svg">
<path fill-rule="evenodd" clip-rule="evenodd" d="M44.9436 20.0967L39.9442 39.0857C39.4915 40.8051 37.4489 41.4963 36.0011 40.6197C34.8156 39.9019 32.35 38.4845 27.5125 35.9398C26.5502 35.4337 26.2055 34.1147 27.0312 33.2222L29.4404 30.618L25.4895 32.7365C24.2146 33.4201 22.638 33.8184 21.0105 33.4859C18.8016 33.0346 16.7276 32.2253 16.1016 31.9706C14.5256 31.3294 14.7403 29.2869 16.1138 28.7375L42.6378 18.1279C43.9411 17.6066 45.295 18.7619 44.9436 20.0967ZM16.7584 30.2806C16.6887 30.3085 16.6861 30.4029 16.7556 30.4312C17.3508 30.6734 19.3078 31.435 21.3587 31.854C22.4928 32.0857 23.6549 31.8193 24.6709 31.2745L36.16 25.1139C36.4126 24.9784 36.6656 25.292 36.4722 25.501L28.2941 34.341C28.257 34.3811 28.2703 34.4458 28.3191 34.4715C33.173 37.0248 35.6714 38.4597 36.8974 39.202C37.4163 39.5162 38.1423 39.248 38.2945 38.6698L43.2939 19.6808C43.2956 19.6742 43.2889 19.6684 43.2824 19.671L16.7584 30.2806Z" fill="white"/>
</svg>

<svg width="60" height="60" viewBox="0 0 60 60" fill="none" xmlns="http://www.w3.org/2000/svg"><path fill-rule="evenodd" clip-rule="evenodd" d="M44.944 20.097l-5 18.989c-.453 1.72-2.495 2.41-3.943 1.534-1.185-.718-3.651-2.136-8.488-4.68-.963-.506-1.308-1.825-.482-2.718l2.41-2.604-3.951 2.119c-1.275.683-2.852 1.081-4.48.749-2.208-.451-4.282-1.26-4.908-1.515-1.576-.642-1.362-2.684.012-3.233l26.524-10.61c1.303-.521 2.657.634 2.306 1.969zM16.758 30.28a.08.08 0 00-.002.15c.595.242 2.552 1.004 4.603 1.423 1.134.232 2.296-.035 3.312-.58l11.489-6.16c.253-.136.506.178.312.387l-8.178 8.84a.083.083 0 00.025.13c4.854 2.554 7.352 3.989 8.578 4.731.52.314 1.245.046 1.398-.532l4.999-18.99c.002-.006-.005-.012-.012-.009L16.758 30.28z" fill="#fff"/></svg>36.6656 25.292 36.4722 25.501L28.2941 34.341C28.257 34.3811 28.2703 34.4458 28.3191 34.4715C33.173 37.0248 35.6714 38.4597 36.8974 39.202C37.4163 39.5162 38.1423 39.248 38.2945 38.6698L43.2939 19.6808C43.2956 19.6742 43.2889 19.6684 43.2824 19.671L16.7584 30.2806Z" fill="white"/>
</svg>
